packages/webapp/public/images/template-logos/google-sheet.svg

<svg width="62" height="62" viewBox="0 0 62 62" fill="none" xmlns="http://www.w3.org/2000/svg">
<mask id="mask0_496_1998" style="mask-type:alpha" maskUnits="userSpaceOnUse" x="15" y="9" width="32" height="44">
<path d="M34.9751 9.62891H18.4614C16.8586 9.62891 15.5472 10.9403 15.5472 12.5431V49.456C15.5472 51.0588 16.8586 52.3702 18.4614 52.3702H43.7177C45.3204 52.3702 46.6318 51.0588 46.6318 49.456V21.2856L34.9751 9.62891Z" fill="white"/>
</mask>
<g mask="url(#mask0_496_1998)">
<path d="M34.9751 9.62891H18.4614C16.8586 9.62891 15.5472 10.9403 15.5472 12.5431V49.456C15.5472 51.0588 16.8586 52.3702 18.4614 52.3702H43.7177C45.3204 52.3702 46.6318 51.0588 46.6318 49.456V21.2856L39.8321 16.4286L34.9751 9.62891Z" fill="#0F9D58"/>
</g>
<mask id="mask1_496_1998" style="mask-type:alpha" maskUnits="userSpaceOnUse" x="15" y="9" width="32" height="44">
<path d="M34.9751 9.62891H18.4614C16.8586 9.62891 15.5472 10.9403 15.5472 12.5431V49.456C15.5472 51.0588 16.8586 52.3702 18.4614 52.3702H43.7177C45.3204 52.3702 46.6318 51.0588 46.6318 49.456V21.2856L34.9751 9.62891Z" fill="white"/>
</mask>
<g mask="url(#mask1_496_1998)">
<path d="M23.3184 30.5137V44.5989H38.8607V30.5137H23.3184ZM30.1181 42.6561H25.2612V40.2276H30.1181V42.6561ZM30.1181 38.7705H25.2612V36.342H30.1181V38.7705ZM30.1181 34.8849H25.2612V32.4564H30.1181V34.8849ZM36.9179 42.6561H32.0609V40.2276H36.9179V42.6561ZM36.9179 38.7705H32.0609V36.342H36.9179V38.7705ZM36.9179 34.8849H32.0609V32.4564H36.9179V34.8849Z" fill="#F1F1F1"/>
</g>
<mask id="mask2_496_1998" style="mask-type:alpha" maskUnits="userSpaceOnUse" x="15" y="9" width="32" height="44">
<path d="M34.9751 9.62891H18.4614C16.8586 9.62891 15.5472 10.9403 15.5472 12.5431V49.456C15.5472 51.0588 16.8586 52.3702 18.4614 52.3702H43.7177C45.3204 52.3702 46.6318 51.0588 46.6318 49.456V21.2856L34.9751 9.62891Z" fill="white"/>
</mask>
<g mask="url(#mask2_496_1998)">
<path d="M35.8275 20.4336L46.6318 31.2355V21.286L35.8275 20.4336Z" fill="url(#paint0_linear_496_1998)"/>
</g>
<mask id="mask3_496_1998" style="mask-type:alpha" maskUnits="userSpaceOnUse" x="15" y="9" width="32" height="44">
<path d="M34.9751 9.62891H18.4614C16.8586 9.62891 15.5472 10.9403 15.5472 12.5431V49.456C15.5472 51.0588 16.8586 52.3702 18.4614 52.3702H43.7177C45.3204 52.3702 46.6318 51.0588 46.6318 49.456V21.2856L34.9751 9.62891Z" fill="white"/>
</mask>
<g mask="url(#mask3_496_1998)">
<path d="M34.9751 9.62891V18.3715C34.9751 19.9815 36.2792 21.2856 37.8893 21.2856H46.6318L34.9751 9.62891Z" fill="#87CEAC"/>
</g>
<mask id="mask4_496_1998" style="mask-type:alpha" maskUnits="userSpaceOnUse" x="15" y="9" width="32" height="44">
<path d="M34.9751 9.62891H18.4614C16.8586 9.62891 15.5472 10.9403 15.5472 12.5431V49.456C15.5472 51.0588 16.8586 52.3702 18.4614 52.3702H43.7177C45.3204 52.3702 46.6318 51.0588 46.6318 49.456V21.2856L34.9751 9.62891Z" fill="white"/>
</mask>
<g mask="url(#mask4_496_1998)">
<path d="M18.4614 9.62891C16.8586 9.62891 15.5472 10.9403 15.5472 12.5431V12.7859C15.5472 11.1831 16.8586 9.87176 18.4614 9.87176H34.9751V9.62891H18.4614Z" fill="white" fill-opacity="0.2"/>
</g>
<mask id="mask5_496_1998" style="mask-type:alpha" maskUnits="userSpaceOnUse" x="15" y="9" width="32" height="44">
<path d="M34.9751 9.62891H18.4614C16.8586 9.62891 15.5472 10.9403 15.5472 12.5431V49.456C15.5472 51.0588 16.8586 52.3702 18.4614 52.3702H43.7177C45.3204 52.3702 46.6318 51.0588 46.6318 49.456V21.2856L34.9751 9.62891Z" fill="white"/>
</mask>
<g mask="url(#mask5_496_1998)">
<path d="M43.7177 52.1271H18.4614C16.8586 52.1271 15.5472 50.8157 15.5472 49.2129V49.4557C15.5472 51.0586 16.8586 52.3699 18.4614 52.3699H43.7177C45.3204 52.3699 46.6318 51.0586 46.6318 49.4557V49.2129C46.6318 50.8157 45.3204 52.1271 43.7177 52.1271Z" fill="#263238" fill-opacity="0.2"/>
</g>
<mask id="mask6_496_1998" style="mask-type:alpha" maskUnits="userSpaceOnUse" x="15" y="9" width="32" height="44">
<path d="M34.9751 9.62891H18.4614C16.8586 9.62891 15.5472 10.9403 15.5472 12.5431V49.456C15.5472 51.0588 16.8586 52.3702 18.4614 52.3702H43.7177C45.3204 52.3702 46.6318 51.0588 46.6318 49.456V21.2856L34.9751 9.62891Z" fill="white"/>
</mask>
<g mask="url(#mask6_496_1998)">
<path d="M37.8893 21.2853C36.2792 21.2853 34.9751 19.9811 34.9751 18.3711V18.6139C34.9751 20.224 36.2792 21.5281 37.8893 21.5281H46.6318V21.2853H37.8893Z" fill="#263238" fill-opacity="0.1"/>
</g>
<path d="M34.9751 9.62891H18.4614C16.8586 9.62891 15.5472 10.9403 15.5472 12.5431V49.456C15.5472 51.0588 16.8586 52.3702 18.4614 52.3702H43.7177C45.3204 52.3702 46.6318 51.0588 46.6318 49.456V21.2856L34.9751 9.62891Z" fill="url(#paint1_radial_496_1998)"/>
<defs>
<linearGradient id="paint0_linear_496_1998" x1="41.2303" y1="21.3611" x2="41.2303" y2="31.237" gradientUnits="userSpaceOnUse">
<stop stop-color="#263238" stop-opacity="0.2"/>
<stop offset="1" stop-color="#263238" stop-opacity="0.02"/>
</linearGradient>
<radialGradient id="paint1_radial_496_1998" cx="0" cy="0" r="1" gradientUnits="userSpaceOnUse" gradientTransform="translate(16.532 10.4785) scale(50.1235 50.1235)">
<stop stop-color="white" stop-opacity="0.1"/>
<stop offset="1" stop-color="white" stop-opacity="0"/>
</radialGradient>
</defs>
</svg>

<svg xmlns="http://www.w3.org/2000/svg" width="62" height="62" fill="none"><mask id="A" maskUnits="userSpaceOnUse" x="15" y="9" width="32" height="44" mask-type="alpha"><path d="M34.975 9.629H18.461c-1.603 0-2.914 1.311-2.914 2.914v36.913c0 1.603 1.311 2.914 2.914 2.914h25.256c1.603 0 2.914-1.311 2.914-2.914v-28.17L34.975 9.629z" fill="#fff"/></mask><g mask="url(#A)"><path d="M34.975 9.629H18.461c-1.603 0-2.914 1.311-2.914 2.914v36.913c0 1.603 1.311 2.914 2.914 2.914h25.256c1.603 0 2.914-1.311 2.914-2.914v-28.17l-6.8-4.857-4.857-6.8z" fill="#0f9d58"/></g><mask id="B" maskUnits="userSpaceOnUse" x="15" y="9" width="32" height="44" mask-type="alpha"><path d="M34.975 9.629H18.461c-1.603 0-2.914 1.311-2.914 2.914v36.913c0 1.603 1.311 2.914 2.914 2.914h25.256c1.603 0 2.914-1.311 2.914-2.914v-28.17L34.975 9.629z" fill="#fff"/></mask><g mask="url(#B)"><path d="M23.318 30.514v14.085h15.542V30.514H23.318zm6.8 12.142h-4.857v-2.428h4.857v2.428zm0-3.886h-4.857v-2.428h4.857v2.428zm0-3.886h-4.857v-2.428h4.857v2.428zm6.8 7.771h-4.857v-2.428h4.857v2.428zm0-3.886h-4.857v-2.428h4.857v2.428zm0-3.886h-4.857v-2.428h4.857v2.428z" fill="#f1f1f1"/></g><mask id="C" maskUnits="userSpaceOnUse" x="15" y="9" width="32" height="44" mask-type="alpha"><path d="M34.975 9.629H18.461c-1.603 0-2.914 1.311-2.914 2.914v36.913c0 1.603 1.311 2.914 2.914 2.914h25.256c1.603 0 2.914-1.311 2.914-2.914v-28.17L34.975 9.629z" fill="#fff"/></mask><g mask="url(#C)"><path d="M35.828 20.434l10.804 10.802v-9.949l-10.804-.852z" fill="url(#H)"/></g><mask id="D" maskUnits="userSpaceOnUse" x="15" y="9" width="32" height="44" mask-type="alpha"><path d="M34.975 9.629H18.461c-1.603 0-2.914 1.311-2.914 2.914v36.913c0 1.603 1.311 2.914 2.914 2.914h25.256c1.603 0 2.914-1.311 2.914-2.914v-28.17L34.975 9.629z" fill="#fff"/></mask><g mask="url(#D)"><path d="M34.975 9.629v8.743c0 1.61 1.304 2.914 2.914 2.914h8.743L34.975 9.629z" fill="#87ceac"/></g><mask id="E" maskUnits="userSpaceOnUse" x="15" y="9" width="32" height="44" mask-type="alpha"><path d="M34.975 9.629H18.461c-1.603 0-2.914 1.311-2.914 2.914v36.913c0 1.603 1.311 2.914 2.914 2.914h25.256c1.603 0 2.914-1.311 2.914-2.914v-28.17L34.975 9.629z" fill="#fff"/></mask><g mask="url(#E)"><path d="M18.461 9.629c-1.603 0-2.914 1.311-2.914 2.914v.243c0-1.603 1.311-2.914 2.914-2.914h16.514v-.243H18.461z" fill="#fff" fill-opacity=".2"/></g><mask id="F" maskUnits="userSpaceOnUse" x="15" y="9" width="32" height="44" mask-type="alpha"><path d="M34.975 9.629H18.461c-1.603 0-2.914 1.311-2.914 2.914v36.913c0 1.603 1.311 2.914 2.914 2.914h25.256c1.603 0 2.914-1.311 2.914-2.914v-28.17L34.975 9.629z" fill="#fff"/></mask><g mask="url(#F)"><path d="M43.718 52.128H18.461c-1.603 0-2.914-1.311-2.914-2.914v.243c0 1.603 1.311 2.914 2.914 2.914h25.256c1.603 0 2.914-1.311 2.914-2.914v-.243c0 1.603-1.311 2.914-2.914 2.914z" fill="#263238" fill-opacity=".2"/></g><mask id="G" maskUnits="userSpaceOnUse" x="15" y="9" width="32" height="44" mask-type="alpha"><path d="M34.975 9.629H18.461c-1.603 0-2.914 1.311-2.914 2.914v36.913c0 1.603 1.311 2.914 2.914 2.914h25.256c1.603 0 2.914-1.311 2.914-2.914v-28.17L34.975 9.629z" fill="#fff"/></mask><g mask="url(#G)"><path d="M37.889 21.286c-1.61 0-2.914-1.304-2.914-2.914v.243c0 1.61 1.304 2.914 2.914 2.914h8.743v-.243h-8.742z" fill="#263238" fill-opacity=".1"/></g><path d="M34.975 9.629H18.461c-1.603 0-2.914 1.311-2.914 2.914v36.913c0 1.603 1.311 2.914 2.914 2.914h25.256c1.603 0 2.914-1.311 2.914-2.914v-28.17L34.975 9.629z" fill="url(#I)"/><defs><linearGradient id="H" x1="41.23" y1="21.361" x2="41.23" y2="31.237" gradientUnits="userSpaceOnUse"><stop stop-color="#263238" stop-opacity=".2"/><stop offset="1" stop-color="#263238" stop-opacity=".02"/></linearGradient><radialGradient id="I" cx="0" cy="0" r="1" gradientUnits="userSpaceOnUse" gradientTransform="translate(16.532 10.479) scale(50.1235 50.1235)"><stop stop-color="#fff" stop-opacity=".1"/><stop offset="1" stop-color="#fff" stop-opacity="0"/></radialGradient></defs></svg>
